!!!!SEGMENT: pl-wtm--r-996-2--003_krogulski-jozef-wladyslaw--nieszpory-salve-regina.krn
!!!cenid: 18xx:2101
!!!COM: Krogulski, Józef Władysław
!!!COM-rismid: pe30001797
!!!CDT: 1815/10/04-1842/01/09
!!!CNT: Polish
!!!OTL: Nieszpory – Salve Regina
!!!PDT: 1836
!!!AGN: Sacred; Vespers
!!!SMS-siglum: PL-Wtm
!!!SMS-shelfmark: R 996/2
!!!SMS-shelfwork: 001-003 M
!!!SMS-variant:
!!!SMS-altvar:
!!!NIFC-rismid: 1001086267
!!!OMD: Allo moderato.
!!!system-decoration: [(s1)]
**kern	**dynam
*part1	*part1
*staff1	*
*I"Clarino in D.	*
*I'clno in D	*
*clefG2	*
*ITrd-1c-2	*
*k[f#c#]	*
*M4/4	*
*met(c)	*
*>[A,B,B,C]	*
=1	=1
*>A	*
!	!LO:DY:b:rj
2a/	f
4a/	.
4r	.
=2	=2
!LO:TX:a:Bi:t=1.	!
1r	.
=3	=3
2a/	.
2r	.
=4	=4
2ee\	.
4ee\	.
4r	.
=5	=5
2a/	.
4a/	.
4r	.
=6	=6
!LO:TX:a:Bi:t=1.	!
1r	.
=7	=7
2a\	.
2ee\	.
=8	=8
2ee\	.
2a/	.
=9	=9
!LO:TX:a:Bi:t=16.	!
1r	.
=10	=10
1r	.
=11	=11
1r	.
=12	=12
1r	.
=13	=13
1r	.
=14	=14
1r	.
=15	=15
1r	.
=16	=16
1r	.
=17	=17
1r	.
=18	=18
1r	.
=19	=19
1r	.
=20	=20
1r	.
=21	=21
1r	.
=22	=22
1r	.
=23	=23
1r	.
=24	=24
1r	.
=25	=25
2a/	.
4a/	.
4r	.
=26	=26
!LO:TX:a:Bi:t=1.	!
1r	.
=27	=27
2a/	.
2r	.
!!LO:LB:g=original
=28	=28
2ee\	.
4ee\	.
4r	.
=29	=29
2a/	.
4a/	.
4r	.
=30	=30
!LO:TX:a:Bi:t=1.	!
1r	.
=31	=31
2a/	.
2ee\	.
=32	=32
2ee\	.
4a/	.
4r	.
=33	=33
!LO:TX:a:Bi:t=8.	!
00r	.
=34	=34
.	.
=35	=35
.	.
=36	=36
.	.
=37	=37
00r	.
=38	=38
.	.
=39	=39
.	.
=40	=40
.	.
=41	=41
!	!LO:DY:b:rj
2a/	f
4a/	.
4a/	.
=42	=42
2a/	.
2r	.
=43	=43
!LO:TX:a:Bi:t=8.	!
1r	.
=44	=44
1r	.
=45	=45
1r	.
=46	=46
1r	.
=47	=47
1r	.
=48	=48
1r	.
=49	=49
1r	.
=50	=50
1r	.
=51	=51
!	!LO:DY:b:rj
1ff#	f
=52	=52
2ee;>\	.
2r	.
=53	=53
2a/	.
4a/	.
4r	.
!!LO:LB:g=original
=54	=54
!LO:TX:a:Bi:t=1.	!
1r	.
=55	=55
2a/	.
2r	.
=56	=56
2ee\	.
4ee\	.
4r	.
=57	=57
2a/	.
4a/	.
4r	.
=58	=58
!LO:TX:a:Bi:t=1.	!
1r	.
=59	=59
2a/	.
2ee\	.
=60	=60
2ee\	.
4a/	.
4r	.
=61!|:	=61!|:
*>B	*
!!!OMD: Allo vivace.
!	!LO:DY:b:rj
2a/	ff
4a/	.
4a/	.
=62	=62
2a/	.
2a/	.
=63	=63
2a/	.
4a/	.
4a/	.
=64	=64
2a/	.
2a/	.
=65	=65
2.dd\	.
4dd\	.
!!LO:LB:g=original
=66	=66
2ee\	.
4ee\	.
4ee\	.
=67	=67
1ee	.
=68	=68
2a/	.
2r	.
=69:|!	=69:|!
*>C	*
1ee	.
=70	=70
2a/	.
4r	.
4a/	.
=71	=71
1ee	.
=72	=72
2a/	.
4r	.
4a/	.
=73	=73
2ee\	.
2ee\	.
=74	=74
2ee\	.
4ee\	.
4ee\	.
=75	=75
1ee;>	.
=76	=76
2a/	.
2r	.
==	==
*-	*-
!!title: @{OTL};
!!!RDF**kern: > = above
!!!RDF**kern: < = below
!!!RDF**kern: | = vertical stroke
!!!RDF**kern: N = linked
!!!RDF**kern: i = editorial accidental
!!!EED: Wojciech Jakubiak-Danek
!!!EST: 2021-06-09
!!!URL-scan: http://repozytorium.nifc.pl/skany/pl-wtm-nut--r996
!!!ONB-nifc: UWAGA: folder pl-wtm-r996-2
!!!ENC: Krzysztof Stępień
!!!END: 2021-05-27
